; Postprocessed by [ArcWelder](https://github.com/FormerLurker/ArcWelderLib)
; Copyright(C) 2021 - Brad Hochgesang
; Version: 1.2.0, Branch: master, BuildDate: 2021-11-21T20:04:00Z
; resolution=0.05mm
; path_tolerance=5.0%
; max_radius=9999.00mm
; default_xyz_precision=3
; default_e_precision=5
; extrusion_rate_variance=5.0%

; generated by AnycubicSlicer 1.3.0 on 2024-03-01 at 20:18:11 UTC

; 

; external perimeters extrusion width = 0.42mm
; perimeters extrusion width = 0.45mm
; infill extrusion width = 0.45mm
; solid infill extrusion width = 0.50mm
; top infill extrusion width = 0.42mm
; support material extrusion width = 0.42mm
; first layer extrusion width = 0.56mm

;TYPE:Custom
G90 ; use absolute coordinates
M83 ; extruder relative mode
M104 S215 ; set extruder temp
M140 S60 ; set bed temp
M190 S60 ; wait for bed temp
M109 S215 ; wait for extruder temp
G28                                        ; move X/Y/Z to min endstops
G1 Z0.28                                   ; lift nozzle a bit 
G92 E0 
G1 Y3 F1800                                    ; zero the extruded length 
G1 X60  E25 F500                       ; Extrude 25mm of filament in a 5cm line. 
G92 E0                                     ; zero the extruded length again 
G1 E-2 F500                                ; Retract a little 
G1 X70 F4000                              ; Quickly wipe away from the filament line
M117
G21 ; set units to millimeters
G90 ; use absolute coordinates
M82 ; use absolute distances for extrusion
G92 E0
M107
;LAYER_CHANGE
;Z:0.28
;HEIGHT:0.28
; BEFORE_LAYER_CHANGE 0 @ 0.28mm
G1 E-2 F4800
G92 E0
G1 Z.28 F7200
; AFTER_LAYER_CHANGE 0 @ 0.28mm
G1 X85.256 Y46.683
G1 E2 F4800
;TYPE:Skirt/Brim
;WIDTH:0.56
G1 F3000
G1 X85.467 Y46.329 E2.02398
G1 X86.091 Y45.681 E2.07633
G1 X86.503 Y45.41 E2.10503
G1 X86.959 Y45.216 E2.13387
G1 X87.586 Y45.09 E2.17109
G1 X132.47 Y45.095 E4.78311
G3 X135.036 Y47.710 I-0.349 J2.909 E5.01338
G1 X135.036 Y172.289 E12.26325
G3 X134.533 Y173.671 I-2.841 J-0.252 E12.34971
G1 X133.909 Y174.319 E12.40206
G3 X132.414 Y174.910 I-1.725 J-2.178 E12.49682
G1 X87.585 Y174.91 E15.10564
G3 X86.203 Y174.407 I0.252 J-2.841 E15.19210
G1 X85.555 Y173.783 E15.24445
G3 X84.964 Y172.288 I2.178 J-1.725 E15.33921
G1 X84.964 Y47.711 E22.58896
G3 X85.233 Y46.738 I2.616 J0.199 E22.64797
G1 X85.695 Y46.929 F7200
G1 F3000
G1 X85.88 Y46.612 E22.66933
G1 X86.392 Y46.081 E22.71226
G3 X87.610 Y45.590 I1.423 J1.773 E22.78967
G1 X132.442 Y45.595 E25.39867
G3 X134.536 Y47.735 I-0.319 J2.407 E25.58642
G1 X134.536 Y172.264 E32.83338
G3 X134.120 Y173.388 I-2.335 J-0.225 E32.90383
G1 X133.608 Y173.919 E32.94676
G3 X132.390 Y174.410 I-1.423 J-1.773 E33.02417
G1 X87.61 Y174.41 E35.63014
G3 X86.486 Y173.994 I0.225 J-2.335 E35.70059
G1 X85.955 Y173.482 E35.74352
G3 X85.464 Y172.264 I1.773 J-1.423 E35.82093
G1 X85.464 Y47.736 E43.06783
G3 X85.672 Y46.985 I2.010 J0.152 E43.11338
G1 X86.134 Y47.176 F7200
G1 F3000
G3 X87.635 Y46.090 I1.742 J0.827 E43.22582
G1 X132.415 Y46.095 E45.83179
G3 X134.036 Y47.761 I-0.293 J1.907 E45.97698
G1 X134.036 Y172.239 E53.22097
G3 X132.365 Y173.910 I-1.911 J-0.240 E53.36908
G1 X87.635 Y173.91 E55.97214
G3 X85.964 Y172.239 I0.240 J-1.911 E56.12025
G1 X85.964 Y47.761 E63.36424
G3 X86.111 Y47.231 I1.403 J0.104 E63.39640
G1 X86.573 Y47.423 F7200
G1 F3000
G3 X87.659 Y46.590 I1.273 J0.535 E63.47948
G1 X132.387 Y46.595 E66.08242
G3 X133.536 Y47.785 I-0.267 J1.408 E66.18501
G1 X133.536 Y172.215 E73.42621
G3 X132.341 Y173.410 I-1.412 J-0.217 E73.53147
G1 X87.659 Y173.41 E76.13174
G3 X86.464 Y172.215 I0.217 J-1.412 E76.23700
G1 X86.464 Y47.785 E83.4782
G3 X86.550 Y47.478 I0.800 J0.059 E83.49684
G1 X87.012 Y47.67 F7200
G1 F3000
G3 X87.684 Y47.090 I0.853 J0.309 E83.55058
G1 X132.316 Y47.09 E86.14794
G3 X133.026 Y47.761 I-0.195 J0.917 E86.20741
G1 X133.036 Y172.19 E93.44855
G3 X132.365 Y172.900 I-0.917 J-0.195 E93.50802
G1 X87.684 Y172.91 E96.10823
G3 X86.974 Y172.239 I0.195 J-0.917 E96.16770
G1 X86.964 Y47.81 E103.40884
G1 X86.989 Y47.725 E103.414
G1 X87.464 Y47.884 F7200
G1 F3000
G3 X87.758 Y47.590 I0.409 J0.115 E103.43908
G1 X132.242 Y47.59 E106.02782
G3 X132.536 Y47.884 I-0.115 J0.409 E106.05290
G1 X132.536 Y172.116 E113.28257
G3 X132.242 Y172.410 I-0.409 J-0.115 E113.30765
G1 X87.758 Y172.41 E115.89639
G3 X87.464 Y172.116 I0.115 J-0.409 E115.92147
G1 X87.464 Y47.944 E123.14765
G1 E121.74765 F4800
;WIPE_START
G1 F5760
G3 X88.028 Y47.590 I0.423 J0.048 E121.14765
;WIPE_END
G92 E0
G1 X116.444 Y39.61 F7200
G1 E2 F4800
;TYPE:Support material
G1 F3000
G1 X117.228 Y39.656 E2.0457
G1 X118.501 Y40.011 E2.12261
G1 X119.695 Y40.676 E2.20214
G1 X120.7 Y41.603 E2.28171
G1 X121.454 Y42.732 E2.36072
G1 X121.931 Y44.035 E2.44147
G1 X121.991 Y44.56 E2.47222
G1 X103.013 Y44.56 E3.57664
G1 X103.3 Y43.514 E3.63976
G1 X104.046 Y42.276 E3.72387
G1 X105.099 Y41.285 E3.80802
G1 X106.383 Y40.616 E3.89228
G1 X107.801 Y40.32 E3.97658
G1 X109.245 Y40.42 E4.06081
G1 X110.608 Y40.907 E4.14504
G1 X111.038 Y41.213 E4.17575
G1 X111.595 Y41.097 E4.20886
G1 X112.412 Y41.122 E4.25643
G1 X113.229 Y40.461 E4.31759
G1 X114.472 Y39.874 E4.39759
G1 X115.753 Y39.61 E4.4737
G1 X116.369 Y39.61 E4.50955
G1 X121.109 Y44.335 F7200
G1 F3000
G1 X121.109 Y43.097 E4.5816
G1 X121.05 Y42.938 E4.59147
G1 X120.554 Y42.195 E4.64346
G1 X120.554 Y44.11 E4.7549
G1 X119.998 Y44.11 E4.78726
G1 X119.998 Y41.568 E4.93519
G1 X119.443 Y41.055 E4.97917
G1 X119.443 Y44.11 E5.15696
G1 X118.887 Y44.11 E5.18932
G1 X118.887 Y40.741 E5.38538
G1 X118.332 Y40.431 E5.42238
G1 X118.332 Y44.11 E5.63648
G1 X117.776 Y44.11 E5.66884
G1 X117.776 Y40.276 E5.89196
G1 X117.221 Y40.122 E5.92548
G1 X117.221 Y44.11 E6.15756
G1 X116.665 Y44.11 E6.18992
G1 X116.665 Y40.074 E6.42479
G1 X116.11 Y40.06 E6.4571
G1 X116.11 Y44.11 E6.69279
G1 X115.555 Y44.11 E6.72509
G1 X115.555 Y40.11 E6.95787
G1 X114.999 Y40.225 E6.99091
G1 X114.999 Y44.11 E7.217
G1 X114.444 Y44.11 E7.2493
G1 X114.444 Y40.385 E7.46608
G1 X113.888 Y40.647 E7.50185
G1 X113.888 Y44.11 E7.70338
G1 X113.333 Y44.11 E7.73568
G1 X113.333 Y40.956 E7.91923
G1 X112.777 Y41.405 E7.96082
G1 X112.777 Y44.11 E8.11824
G1 X112.222 Y44.11 E8.15054
G1 X112.222 Y41.566 E8.29859
G1 X111.666 Y41.549 E8.33096
G1 X111.666 Y44.11 E8.48
G1 X111.111 Y44.11 E8.5123
G1 X111.111 Y41.657 E8.65505
G1 X110.937 Y41.693 E8.66539
G1 X110.555 Y41.422 E8.69265
G1 X110.555 Y44.11 E8.84908
G1 X110 Y44.11 E8.88138
G1 X110 Y41.168 E9.05259
G1 X109.445 Y40.969 E9.0869
G1 X109.445 Y44.11 E9.26969
G1 X108.889 Y44.11 E9.30205
G1 X108.889 Y40.846 E9.492
G1 X108.334 Y40.808 E9.52437
G1 X108.334 Y44.11 E9.71653
G1 X107.778 Y44.11 E9.74889
G1 X107.778 Y40.785 E9.94239
G1 X107.223 Y40.9 E9.97537
G1 X107.223 Y44.11 E10.16218
G1 X106.667 Y44.11 E10.19454
G1 X106.667 Y41.016 E10.3746
G1 X106.536 Y41.044 E10.3824
G1 X106.112 Y41.265 E10.41023
G1 X106.112 Y44.11 E10.57579
G1 X105.556 Y44.11 E10.60815
G1 X105.556 Y41.554 E10.7569
G2 X105.001 Y41.995 I0.503 J1.202 E10.79849
G1 X105.001 Y44.11 E10.92157
G1 X104.445 Y44.11 E10.95393
G1 X104.445 Y42.517 E11.04663
G1 X104.399 Y42.561 E11.05033
G1 X103.89 Y43.407 E11.10779
G1 X103.89 Y44.335 E11.16179
G1 E9.76179 F4800
;WIPE_START
G1 F5760
G1 X103.89 Y43.577 E9.16179
;WIPE_END
G92 E0
G1 X131.846 Y171.72 F7200
G1 E2 F4800
;TYPE:External perimeter
G1 F3000
G1 X88.154 Y171.72 E4.54265
G1 X88.154 Y48.28 E11.72623
G1 X131.846 Y48.28 E14.26888
G1 X131.846 Y171.66 E21.44897
G1 X131.479 Y171.56 F7200
G1 X131.346 Y171.22
;TYPE:Perimeter
G1 F3000
G1 X88.654 Y171.22 E23.93343
G1 X88.654 Y48.78 E31.05882
G1 X131.346 Y48.78 E33.54328
G1 X131.346 Y171.16 E40.66518
G1 X130.846 Y170.72 F7200
G1 F3000
G1 X89.154 Y170.72 E43.09144
G1 X89.154 Y49.28 E50.15863
G1 X130.846 Y49.28 E52.58489
G1 X130.846 Y170.66 E59.64859
G1 E58.24859 F4800
;WIPE_START
G1 F5760
G1 X130.088 Y170.661 E57.64859
;WIPE_END
G92 E0
G1 X129.632 Y49.48 F7200
G1 E2 F4800
;TYPE:Solid infill
;WIDTH:0.561648
G1 F3000
G1 X130.421 Y50.269 E2.06515
G1 X130.421 Y50.978 E2.10655
G1 X129.148 Y49.705 E2.21166
G1 X128.438 Y49.705 E2.25311
G1 X130.421 Y51.688 E2.41685
G1 X130.421 Y52.397 E2.45825
G1 X127.729 Y49.705 E2.68053
G1 X127.02 Y49.705 E2.72193
G1 X130.421 Y53.106 E3.00276
G1 X130.421 Y53.815 E3.04416
G1 X126.311 Y49.705 E3.38353
G1 X125.601 Y49.705 E3.42498
G1 X130.421 Y54.525 E3.82297
G1 X130.421 Y55.234 E3.86437
G1 X124.892 Y49.705 E4.32091
G1 X124.183 Y49.705 E4.36231
G1 X130.421 Y55.943 E4.87739
G1 X130.421 Y56.653 E4.91884
G1 X123.473 Y49.705 E5.49255
G1 X122.764 Y49.705 E5.53395
G1 X130.421 Y57.362 E6.1662
G1 X130.421 Y58.071 E6.2076
G1 X122.055 Y49.705 E6.89839
G1 X121.345 Y49.705 E6.93984
G1 X130.421 Y58.781 E7.68926
G1 X130.421 Y59.49 E7.73066
G1 X120.636 Y49.705 E8.53862
G1 X119.927 Y49.705 E8.58002
G1 X130.421 Y60.199 E9.44652
G1 X130.421 Y60.909 E9.48797
G1 X119.217 Y49.705 E10.4131
G1 X118.508 Y49.705 E10.4545
G1 X130.421 Y61.618 E11.43817
G1 X130.421 Y62.327 E11.47957
G1 X117.799 Y49.705 E12.52179
G1 X117.089 Y49.705 E12.56324
G1 X130.421 Y63.037 E13.66408
G1 X130.421 Y63.746 E13.70548
G1 X116.38 Y49.705 E14.86487
G1 X115.671 Y49.705 E14.90627
G1 X130.421 Y64.455 E16.1242
G1 X130.421 Y65.164 E16.1656
G1 X114.962 Y49.705 E17.44207
G1 X114.252 Y49.705 E17.48352
G1 X130.421 Y65.874 E18.81862
G1 X130.421 Y66.583 E18.86002
G1 X113.543 Y49.705 E20.25366
G1 X112.834 Y49.705 E20.29506
G1 X130.421 Y67.292 E21.74724
G1 X130.421 Y68.002 E21.78869
G1 X112.124 Y49.705 E23.2995
G1 X111.415 Y49.705 E23.3409
G1 X130.421 Y68.711 E24.91025
G1 X130.421 Y69.42 E24.95165
G1 X110.706 Y49.705 E26.57955
G1 X109.996 Y49.705 E26.621
G1 X130.421 Y70.13 E28.30752
G1 X130.421 Y70.839 E28.34892
G1 X109.287 Y49.705 E30.09399
G1 X108.578 Y49.705 E30.13539
G1 X130.421 Y71.548 E31.939
G1 X130.421 Y72.258 E31.98045
G1 X107.868 Y49.705 E33.84268
G1 X107.159 Y49.705 E33.88408
G1 X130.421 Y72.967 E35.80486
G1 X130.421 Y73.676 E35.84626
G1 X106.45 Y49.705 E37.82558
G1 X105.74 Y49.705 E37.86703
G1 X130.421 Y74.386 E39.90498
G1 X130.421 Y75.095 E39.94638
G1 X105.031 Y49.705 E42.04287
G1 X104.322 Y49.705 E42.08427
G1 X130.421 Y75.804 E44.2393
G1 X130.421 Y76.513 E44.2807
G1 X103.613 Y49.705 E46.49428
G1 X102.903 Y49.705 E46.53573
G1 X130.421 Y77.223 E48.80793
G1 X130.421 Y77.932 E48.84933
G1 X102.194 Y49.705 E51.18007
G1 X101.485 Y49.705 E51.22147
G1 X130.421 Y78.641 E53.61076
G1 X130.421 Y79.351 E53.65221
G1 X100.775 Y49.705 E56.10012
G1 X100.066 Y49.705 E56.14152
G1 X130.421 Y80.06 E58.64798
G1 X130.421 Y80.769 E58.68938
G1 X99.357 Y49.705 E61.25438
G1 X98.647 Y49.705 E61.29583
G1 X130.421 Y81.479 E63.91946
G1 X130.421 Y82.188 E63.96086
G1 X97.938 Y49.705 E66.64303
G1 X97.229 Y49.705 E66.68443
G1 X130.421 Y82.897 E69.42514
G1 X130.421 Y83.607 E69.46659
G1 X96.519 Y49.705 E72.26593
G1 X95.81 Y49.705 E72.30733
G1 X130.421 Y84.316 E75.16521
G1 X130.421 Y85.025 E75.20661
G1 X95.101 Y49.705 E78.12303
G1 X94.391 Y49.705 E78.16448
G1 X130.421 Y85.735 E81.13953
G1 X130.421 Y86.444 E81.18093
G1 X93.682 Y49.705 E84.21452
G1 X92.973 Y49.705 E84.25592
G1 X130.421 Y87.153 E87.34806
G1 X130.421 Y87.862 E87.38946
G1 X92.264 Y49.705 E90.54014
G1 X91.554 Y49.705 E90.58159
G1 X130.421 Y88.572 E93.79089
G1 X130.421 Y89.281 E93.83229
G1 X90.845 Y49.705 E97.10014
G1 X90.136 Y49.705 E97.14154
G1 X130.421 Y89.99 E100.46793
G1 X130.421 Y90.7 E100.50938
G1 X89.579 Y49.857 E103.8818
G1 X89.579 Y50.567 E103.92325
G1 X130.421 Y91.409 E107.29563
G1 X130.421 Y92.118 E107.33703
G1 X89.579 Y51.276 E110.70941
G1 X89.579 Y51.985 E110.75081
G1 X130.421 Y92.828 E114.12323
G1 X130.421 Y93.537 E114.16463
G1 X89.579 Y52.694 E117.53705
G1 X89.579 Y53.404 E117.5785
G1 X130.421 Y94.246 E120.95088
G1 X130.421 Y94.956 E120.99233
G1 X89.579 Y54.113 E124.36475
G1 X89.579 Y54.822 E124.40615
G1 X130.421 Y95.665 E127.77857
G1 X130.421 Y96.374 E127.81997
G1 X89.579 Y55.532 E131.19235
G1 X89.579 Y56.241 E131.23375
G1 X130.421 Y97.084 E134.60617
G1 X130.421 Y97.793 E134.64757
G1 X89.579 Y56.95 E138.01999
G1 X89.579 Y57.66 E138.06144
G1 X130.421 Y98.502 E141.43382
G1 X130.421 Y99.211 E141.47522
G1 X89.579 Y58.369 E144.8476
G1 X89.579 Y59.078 E144.889
G1 X130.421 Y99.921 E148.26142
G1 X130.421 Y100.63 E148.30282
G1 X89.579 Y59.788 E151.6752
G1 X89.579 Y60.497 E151.7166
G1 X130.421 Y101.339 E155.08898
G1 X130.421 Y102.049 E155.13043
G1 X89.579 Y61.206 E158.50285
G1 X89.579 Y61.916 E158.5443
G1 X130.421 Y102.758 E161.91668
G1 X130.421 Y103.467 E161.95808
G1 X89.579 Y62.625 E165.33046
G1 X89.579 Y63.334 E165.37186
G1 X130.421 Y104.177 E168.74428
G1 X130.421 Y104.886 E168.78568
G1 X89.579 Y64.043 E172.1581
G1 X89.579 Y64.753 E172.19955
G1 X130.421 Y105.595 E175.57193
G1 X130.421 Y106.305 E175.61338
G1 X89.579 Y65.462 E178.9858
G1 X89.579 Y66.171 E179.0272
G1 X130.421 Y107.014 E182.39962
G1 X130.421 Y107.723 E182.44102
G1 X89.579 Y66.881 E185.8134
G1 X89.579 Y67.59 E185.8548
G1 X130.421 Y108.433 E189.22722
G1 X130.421 Y109.142 E189.26862
G1 X89.579 Y68.299 E192.64104
G1 X89.579 Y69.009 E192.68249
G1 X130.421 Y109.851 E196.05487
G1 X130.421 Y110.56 E196.09627
G1 X89.579 Y69.718 E199.46865
G1 X89.579 Y70.427 E199.51005
G1 X130.421 Y111.27 E202.88247
G1 X130.421 Y111.979 E202.92387
G1 X89.579 Y71.137 E206.29625
G1 X89.579 Y71.846 E206.33765
G1 X130.421 Y112.688 E209.71003
G1 X130.421 Y113.398 E209.75148
G1 X89.579 Y72.555 E213.1239
G1 X89.579 Y73.265 E213.16535
G1 X130.421 Y114.107 E216.53773
G1 X130.421 Y114.816 E216.57913
G1 X89.579 Y73.974 E219.95151
G1 X89.579 Y74.683 E219.99291
G1 X130.421 Y115.526 E223.36533
G1 X130.421 Y116.235 E223.40673
G1 X89.579 Y75.392 E226.77915
G1 X89.579 Y76.102 E226.8206
G1 X130.421 Y116.944 E230.19298
G1 X130.421 Y117.654 E230.23443
G1 X89.579 Y76.811 E233.60685
G1 X89.579 Y77.52 E233.64825
G1 X130.421 Y118.363 E237.02067
G1 X130.421 Y119.072 E237.06207
G1 X89.579 Y78.23 E240.43445
G1 X89.579 Y78.939 E240.47585
G1 X130.421 Y119.782 E243.84827
G1 X130.421 Y120.491 E243.88967
G1 X89.579 Y79.648 E247.26209
G1 X89.579 Y80.358 E247.30354
G1 X130.421 Y121.2 E250.67592
G1 X130.421 Y121.909 E250.71732
G1 X89.579 Y81.067 E254.0897
G1 X89.579 Y81.776 E254.1311
G1 X130.421 Y122.619 E257.50352
G1 X130.421 Y123.328 E257.54492
G1 X89.579 Y82.486 E260.9173
G1 X89.579 Y83.195 E260.9587
G1 X130.421 Y124.037 E264.33108
G1 X130.421 Y124.747 E264.37253
G1 X89.579 Y83.904 E267.74495
G1 X89.579 Y84.614 E267.7864
G1 X130.421 Y125.456 E271.15878
G1 X130.421 Y126.165 E271.20018
G1 X89.579 Y85.323 E274.57256
G1 X89.579 Y86.032 E274.61396
G1 X130.421 Y126.875 E277.98638
G1 X130.421 Y127.584 E278.02778
G1 X89.579 Y86.741 E281.4002
G1 X89.579 Y87.451 E281.44165
G1 X130.421 Y128.293 E284.81403
G1 X130.421 Y129.003 E284.85548
G1 X89.579 Y88.16 E288.2279
G1 X89.579 Y88.869 E288.2693
G1 X130.421 Y129.712 E291.64172
G1 X130.421 Y130.421 E291.68312
G1 X89.579 Y89.579 E295.0555
G1 X89.579 Y90.288 E295.0969
G1 X130.421 Y131.131 E298.46932
G1 X130.421 Y131.84 E298.51072
G1 X89.579 Y90.997 E301.88314
G1 X89.579 Y91.707 E301.92459
G1 X130.421 Y132.549 E305.29697
G1 X130.421 Y133.258 E305.33837
G1 X89.579 Y92.416 E308.71075
G1 X89.579 Y93.125 E308.75215
G1 X130.421 Y133.968 E312.12457
G1 X130.421 Y134.677 E312.16597
G1 X89.579 Y93.835 E315.53835
G1 X89.579 Y94.544 E315.57975
G1 X130.421 Y135.386 E318.95213
G1 X130.421 Y136.096 E318.99358
G1 X89.579 Y95.253 E322.366
G1 X89.579 Y95.963 E322.40745
G1 X130.421 Y136.805 E325.77983
G1 X130.421 Y137.514 E325.82123
G1 X89.579 Y96.672 E329.19361
G1 X89.579 Y97.381 E329.23501
G1 X130.421 Y138.224 E332.60743
G1 X130.421 Y138.933 E332.64883
G1 X89.579 Y98.09 E336.02125
G1 X89.579 Y98.8 E336.0627
G1 X130.421 Y139.642 E339.43508
G1 X130.421 Y140.352 E339.47653
G1 X89.579 Y99.509 E342.84895
G1 X89.579 Y100.218 E342.89035
G1 X130.421 Y141.061 E346.26277
G1 X130.421 Y141.77 E346.30417
G1 X89.579 Y100.928 E349.67655
G1 X89.579 Y101.637 E349.71795
G1 X130.421 Y142.48 E353.09037
G1 X130.421 Y143.189 E353.13177
G1 X89.579 Y102.346 E356.50419
G1 X89.579 Y103.056 E356.54564
G1 X130.421 Y143.898 E359.91802
G1 X130.421 Y144.608 E359.95947
G1 X89.579 Y103.765 E363.33189
G1 X89.579 Y104.474 E363.37329
G1 X130.421 Y145.317 E366.74571
G1 X130.421 Y146.026 E366.78711
