; Postprocessed by [ArcWelder](https://github.com/FormerLurker/ArcWelderLib)
; Copyright(C) 2021 - Brad Hochgesang
; Version: 1.2.0, Branch: master, BuildDate: 2021-11-21T20:04:00Z
; resolution=0.05mm
; path_tolerance=5.0%
; max_radius=9999.00mm
; default_xyz_precision=3
; default_e_precision=5
; extrusion_rate_variance=5.0%

; generated by AnycubicSlicer 1.3.0 on 2024-03-01 at 23:36:36 UTC

; 

; external perimeters extrusion width = 0.42mm
; perimeters extrusion width = 0.45mm
; infill extrusion width = 0.45mm
; solid infill extrusion width = 0.50mm
; top infill extrusion width = 0.42mm
; support material extrusion width = 0.42mm
; first layer extrusion width = 0.56mm

;TYPE:Custom
G90 ; use absolute coordinates
M83 ; extruder relative mode
M104 S215 ; set extruder temp
M140 S60 ; set bed temp
M190 S60 ; wait for bed temp
M109 S215 ; wait for extruder temp
G28                                        ; move X/Y/Z to min endstops
G1 Z0.28                                   ; lift nozzle a bit 
G92 E0 
G1 Y3 F1800                                    ; zero the extruded length 
G1 X60  E25 F500                       ; Extrude 25mm of filament in a 5cm line. 
G92 E0                                     ; zero the extruded length again 
G1 E-2 F500                                ; Retract a little 
G1 X70 F4000                              ; Quickly wipe away from the filament line
M117
G21 ; set units to millimeters
G90 ; use absolute coordinates
M82 ; use absolute distances for extrusion
G92 E0
M107
;LAYER_CHANGE
;Z:0.28
;HEIGHT:0.28
; BEFORE_LAYER_CHANGE 0 @ 0.28mm
G1 E-2 F4800
G92 E0
G1 Z.28 F7200
; AFTER_LAYER_CHANGE 0 @ 0.28mm
G1 X47.39 Y86.843
G1 E2 F4800
;TYPE:Skirt/Brim
;WIDTH:0.56
G1 F3000
G1 X48.011 Y86.58 E2.03925
G1 X49.214 Y86.341 E2.11063
G1 X170.844 Y86.346 E9.18888
G1 X171.782 Y86.518 E9.24438
G1 X172.714 Y86.896 E9.30291
G3 X174.138 Y88.046 I-2.510 J4.564 E9.40984
G1 X174.841 Y89.107 E9.48391
G3 X175.308 Y90.873 I-4.330 J2.090 E9.59071
G1 X175.308 Y129.137 E11.81748
G1 X175.061 Y130.361 E11.89015
G3 X174.329 Y131.723 I-4.605 J-1.597 E11.98042
G1 X173.187 Y132.82 E12.07257
G3 X171.989 Y133.420 I-2.930 J-4.354 E12.15071
G1 X170.786 Y133.659 E12.22209
G1 X49.214 Y133.659 E19.29696
G1 X47.99 Y133.412 E19.36963
G3 X46.628 Y132.680 I1.597 J-4.605 E19.45990
G1 X45.531 Y131.538 E19.55205
G3 X44.931 Y130.340 I4.354 J-2.930 E19.63019
G1 X44.692 Y129.137 E19.70157
G1 X44.692 Y90.863 E21.92892
G1 X44.939 Y89.639 E22.00159
G3 X45.671 Y88.277 I4.605 J1.597 E22.09186
G1 X46.813 Y87.18 E22.18401
G1 X47.338 Y86.873 E22.2194
G1 X47.59 Y87.305 F7200
G1 F3000
G1 X48.181 Y87.051 E22.25684
G1 X49.239 Y86.841 E22.31961
G1 X170.82 Y86.846 E29.39501
G3 X173.770 Y88.386 I-0.376 J4.315 E29.59341
G1 X174.383 Y89.309 E29.65789
G3 X174.808 Y90.894 I-3.867 J1.886 E29.75383
G1 X174.808 Y129.112 E31.97792
G1 X174.592 Y130.185 E32.04162
G3 X173.926 Y131.426 I-4.126 J-1.415 E32.12386
G1 X172.909 Y132.403 E32.20593
G3 X171.819 Y132.949 I-2.603 J-3.835 E32.27703
G1 X170.761 Y133.159 E32.3398
G1 X49.239 Y133.159 E39.41176
G1 X48.166 Y132.943 E39.47546
G3 X46.925 Y132.277 I1.415 J-4.126 E39.55770
G1 X45.948 Y131.26 E39.63977
G3 X45.402 Y130.170 I3.835 J-2.603 E39.71087
G1 X45.192 Y129.112 E39.77364
G1 X45.192 Y90.888 E41.99808
G1 X45.408 Y89.815 E42.06178
G3 X46.074 Y88.574 I4.126 J1.415 E42.14402
G1 X47.091 Y87.597 E42.22609
G1 X47.539 Y87.335 E42.25629
G1 X47.791 Y87.764 F7200
G1 F3000
G1 X48.351 Y87.522 E42.29179
G1 X49.263 Y87.341 E42.3459
G1 X170.795 Y87.345 E49.41845
G3 X173.402 Y88.724 I-0.355 J3.825 E49.59426
G1 X173.925 Y89.513 E49.64935
G3 X174.308 Y90.915 I-3.343 J1.667 E49.73433
G1 X174.308 Y129.088 E51.95581
G1 X174.123 Y130.011 E52.01059
G3 X173.522 Y131.130 I-3.602 J-1.213 E52.08477
G1 X172.63 Y131.988 E52.1568
G3 X171.649 Y132.478 I-2.325 J-3.428 E52.22076
G1 X170.737 Y132.659 E52.27487
G1 X49.263 Y132.659 E59.34404
G1 X48.34 Y132.474 E59.39882
G3 X47.221 Y131.873 I1.213 J-3.602 E59.47300
G1 X46.363 Y130.981 E59.54503
G3 X45.873 Y130.000 I3.428 J-2.325 E59.60899
G1 X45.692 Y129.088 E59.6631
G1 X45.692 Y90.912 E61.88475
G1 X45.877 Y89.989 E61.93953
G3 X46.478 Y88.870 I3.602 J1.213 E62.01371
G1 X47.37 Y88.012 E62.08574
G1 X47.74 Y87.795 E62.1107
G1 X47.993 Y88.226 F7200
G1 F3000
G1 X48.519 Y87.993 E62.14418
G1 X49.288 Y87.841 E62.1898
G1 X170.77 Y87.845 E69.25944
G3 X173.808 Y90.937 I-0.372 J3.404 E69.53242
G1 X173.808 Y129.063 E71.75116
G3 X173.120 Y130.831 I-3.247 J-0.246 E71.86301
G1 X172.351 Y131.572 E71.92516
G3 X170.712 Y132.159 I-1.886 J-2.685 E72.02752
G1 X49.288 Y132.159 E79.09378
G3 X47.520 Y131.471 I0.246 J-3.247 E79.20563
G1 X46.779 Y130.702 E79.26778
G3 X46.192 Y129.063 I2.685 J-1.886 E79.37014
G1 X46.192 Y90.937 E81.58888
G3 X46.880 Y89.169 I3.247 J0.246 E81.70073
G1 X47.649 Y88.428 E81.76288
G1 X47.942 Y88.256 E81.78265
G1 X48.196 Y88.684 F7200
G1 F3000
G3 X49.312 Y88.340 I1.323 J2.311 E81.85103
G1 X170.743 Y88.345 E88.9177
G3 X173.309 Y90.960 I-0.349 J2.909 E89.14797
G1 X173.309 Y129.038 E91.36392
G3 X172.718 Y130.533 I-2.760 J-0.227 E91.45868
G1 X172.07 Y131.157 E91.51103
G3 X170.688 Y131.660 I-1.618 J-2.296 E91.59749
G1 X49.313 Y131.66 E98.6609
G3 X47.818 Y131.069 I0.227 J-2.760 E98.75566
G1 X47.194 Y130.421 E98.80801
G3 X46.691 Y129.039 I2.296 J-1.618 E98.89447
G1 X46.691 Y90.962 E101.11036
G3 X47.282 Y89.467 I2.760 J0.227 E101.20512
G1 X47.93 Y88.843 E101.25747
G1 X48.145 Y88.715 E101.27203
G1 X48.402 Y89.141 F7200
G1 F3000
G3 X49.337 Y88.840 I1.122 J1.884 E101.32961
G1 X170.715 Y88.845 E108.39319
G3 X172.809 Y90.985 I-0.319 J2.407 E108.58094
G1 X172.809 Y129.014 E110.79404
G3 X172.318 Y130.232 I-2.250 J-0.199 E110.87145
G1 X171.787 Y130.744 E110.91438
G3 X170.663 Y131.160 I-1.332 J-1.873 E110.98483
G1 X49.337 Y131.16 E118.04539
G3 X48.119 Y130.669 I0.199 J-2.250 E118.12280
G1 X47.607 Y130.138 E118.16573
G3 X47.191 Y129.014 I1.873 J-1.332 E118.23618
G1 X47.191 Y90.986 E120.44922
G3 X47.682 Y89.768 I2.250 J0.199 E120.52663
G1 X48.213 Y89.256 E120.56956
G1 X48.351 Y89.172 E120.57896
G1 X48.612 Y89.597 F7200
G1 F3000
G3 X49.362 Y89.340 I0.912 J1.438 E120.62548
G1 X170.688 Y89.345 E127.68604
G3 X172.309 Y91.011 I-0.293 J1.907 E127.83123
G1 X172.309 Y128.989 E130.04136
G3 X170.638 Y130.660 I-1.893 J-0.222 E130.18947
G1 X49.362 Y130.66 E137.24712
G3 X47.691 Y128.989 I0.222 J-1.893 E137.39523
G1 X47.691 Y91.011 E139.60536
G3 X48.561 Y89.628 I1.924 J0.245 E139.70348
G1 X48.828 Y90.049 F7200
G1 F3000
G3 X49.386 Y89.840 I0.703 J1.027 E139.73845
G1 X170.66 Y89.845 E146.79598
G3 X171.809 Y91.035 I-0.267 J1.408 E146.89857
G1 X171.809 Y128.965 E149.1059
G3 X170.614 Y130.160 I-1.400 J-0.205 E149.21116
G1 X49.386 Y130.16 E156.26602
G3 X48.191 Y128.965 I0.205 J-1.400 E156.37128
G1 X48.191 Y91.035 E158.57861
G3 X48.779 Y90.084 I1.363 J0.185 E158.64539
G1 X49.092 Y90.472 F7200
G1 F3000
G1 X49.411 Y90.34 E158.66548
G1 X170.638 Y90.35 E165.72028
G3 X171.309 Y91.060 I-0.242 J0.901 E165.77975
G1 X171.299 Y128.989 E167.98703
G3 X170.589 Y129.660 I-0.901 J-0.242 E168.04650
G1 X49.362 Y129.65 E175.1013
G3 X48.691 Y128.940 I0.242 J-0.901 E175.16077
G1 X48.691 Y91.06 E177.36519
G3 X49.050 Y90.514 I0.830 J0.155 E177.40397
G1 X49.393 Y90.878 F7200
G1 F3000
G1 X49.485 Y90.84 E177.40976
G1 X170.515 Y90.84 E184.45309
G3 X170.809 Y91.134 I-0.115 J0.409 E184.47817
G1 X170.809 Y128.866 E186.67398
G3 X170.515 Y129.160 I-0.409 J-0.115 E186.69906
G1 X49.485 Y129.16 E193.74239
G3 X49.191 Y128.866 I0.115 J-0.409 E193.76747
G1 X49.191 Y91.134 E195.96328
G3 X49.351 Y90.921 I0.333 J0.084 E195.97907
G1 E194.57907 F4800
;WIPE_START
G1 F5760
G1 X49.485 Y90.84 E194.45511
G1 X50.086 Y90.84 E193.97907
;WIPE_END
G92 E0
G1 X49.881 Y128.47 F7200
G1 E2 F4800
;TYPE:External perimeter
G1 F3000
G1 X49.881 Y91.53 E4.14972
G1 X170.119 Y91.53 E11.14696
G1 X170.119 Y128.47 E13.29668
G1 X49.941 Y128.47 E20.29043
G1 X50.046 Y128.105 F7200
G1 X50.381 Y127.97
;TYPE:Perimeter
G1 F3000
G1 X50.381 Y92.03 E22.38196
G1 X169.619 Y92.03 E29.32101
G1 X169.619 Y127.97 E31.41254
G1 X50.441 Y127.97 E38.3481
G1 X50.881 Y127.47 F7200
G1 F3000
G1 X50.881 Y123.532 E38.57727
G1 X102.733 Y123.532 E41.59479
G1 X102.733 Y102.467 E42.82067
G1 X50.881 Y102.467 E45.83819
G1 X50.881 Y92.53 E46.41647
G1 X169.119 Y92.53 E53.29732
G1 X169.119 Y127.47 E55.33065
G1 X50.941 Y127.47 E62.20801
G1 E60.80801 F4800
;WIPE_START
G1 F5760
G1 X50.929 Y126.712 E60.20801
;WIPE_END
G92 E0
G1 X108.146 Y99.601 F7200
G1 E2 F4800
;TYPE:External perimeter
G1 F3000
G1 X107.363 Y99.204 E2.05109
G1 X106.747 Y98.588 E2.10179
G1 X106.351 Y97.811 E2.15254
G1 X106.214 Y96.95 E2.20328
G1 X106.351 Y96.089 E2.25402
G1 X106.747 Y95.312 E2.30477
G1 X107.363 Y94.696 E2.35547
G1 X108.14 Y94.3 E2.40622
G1 X109.001 Y94.163 E2.45696
G1 X109.862 Y94.3 E2.5077
G1 X110.639 Y94.696 E2.55845
G1 X111.255 Y95.312 E2.60915
G1 X111.651 Y96.09 E2.65995
G1 X111.786 Y96.95 E2.71061
G1 X111.651 Y97.81 E2.76127
G1 X111.255 Y98.588 E2.81207
G1 X110.639 Y99.204 E2.86277
G1 X109.861 Y99.6 E2.91357
G1 X109.001 Y99.735 E2.96423
G1 X108.205 Y99.61 E3.01112
G1 X107.849 Y99.869 F7200
G1 X107.931 Y100.054
;TYPE:Perimeter
G1 F3000
G1 X107.066 Y99.614 E3.0676
G1 X106.337 Y98.885 E3.1276
G1 X105.87 Y97.967 E3.18754
G1 X105.708 Y96.95 E3.24747
G1 X105.87 Y95.933 E3.3074
G1 X106.337 Y95.015 E3.36734
G1 X107.066 Y94.286 E3.42734
G1 X107.984 Y93.819 E3.48728
G1 X109.001 Y93.657 E3.54721
G1 X110.018 Y93.819 E3.60714
G1 X110.936 Y94.286 E3.66708
G1 X111.665 Y95.015 E3.72708
G1 X112.132 Y95.933 E3.78702
G1 X112.293 Y96.95 E3.84694
G1 X112.132 Y97.967 E3.90686
G1 X111.665 Y98.885 E3.9668
G1 X110.936 Y99.614 E4.0268
G1 X110.018 Y100.081 E4.08674
G1 X109.001 Y100.242 E4.14666
G1 X107.984 Y100.081 E4.20658
G1 X107.72 Y100.507 F7200
G1 F3000
G1 X106.769 Y100.024 E4.26865
G1 X105.927 Y99.182 E4.33795
G1 X105.389 Y98.123 E4.40708
G1 X105.202 Y96.95 E4.4762
G1 X105.389 Y95.777 E4.54532
G1 X105.927 Y94.718 E4.61445
G1 X106.769 Y93.876 E4.68375
G1 X107.828 Y93.338 E4.75288
G1 X109.001 Y93.151 E4.822
G1 X110.174 Y93.338 E4.89112
G1 X111.233 Y93.876 E4.96025
G1 X112.075 Y94.718 E5.02955
G1 X112.614 Y95.777 E5.0987
G1 X112.799 Y96.95 E5.16781
G1 X112.614 Y98.123 E5.23692
G1 X112.075 Y99.182 E5.30607
G1 X111.233 Y100.024 E5.37537
G1 X110.174 Y100.563 E5.44452
G1 X109.001 Y100.748 E5.51363
G1 X107.828 Y100.563 E5.58274
G1 X107.773 Y100.534 E5.58636
G1 E4.18636 F4800
;WIPE_START
G1 F5760
G1 X107.097 Y100.191 E3.58636
;WIPE_END
G92 E0
G1 X163.181 Y122.532 F7200
G1 E2 F4800
;TYPE:External perimeter
G1 F3000
G1 X113.818 Y122.532 E4.87268
G1 X113.818 Y103.467 E5.98217
G1 X163.181 Y103.467 E8.85485
G1 X163.181 Y122.472 E9.96084
G1 X163.337 Y122.9 F7200
G1 X163.681 Y123.032
;TYPE:Perimeter
G1 F3000
G1 X113.318 Y123.032 E12.89171
G1 X113.318 Y102.967 E14.05939
G1 X163.681 Y102.967 E16.99026
G1 X163.681 Y122.972 E18.15445
G1 X164.181 Y123.532 F7200
G1 F3000
G1 X112.818 Y123.532 E21.14352
G1 X112.818 Y102.467 E22.3694
G1 X164.181 Y102.467 E25.35847
G1 X164.181 Y123.472 E26.58085
G1 E25.18085 F4800
;WIPE_START
G1 F5760
G1 X163.423 Y123.473 E24.58085
;WIPE_END
G92 E0
G1 X101.733 Y103.467 F7200
G1 E2 F4800
;TYPE:External perimeter
G1 F3000
G1 X101.733 Y122.532 E3.10949
G1 X51.352 Y122.532 E6.04141
G1 X51.352 Y103.467 E7.1509
G1 X101.673 Y103.467 E10.07933
G1 X102.13 Y103.419 F7200
G1 X102.233 Y102.967
;TYPE:Perimeter
G1 F3000
G1 X102.233 Y123.032 E11.24701
G1 X50.852 Y123.032 E14.23712
G1 X50.852 Y102.967 E15.4048
G1 X102.173 Y102.967 E18.39142
G1 E16.99142 F4800
;WIPE_START
G1 F5760
G1 X102.175 Y103.725 E16.39142
;WIPE_END
G92 E0
G1 X107.083 Y93.042 F7200
G1 E2 F4800
;TYPE:Gap fill
;WIDTH:0.395671
G1 F3000
G1 X107.724 Y92.939 E2.02536
;WIDTH:0.329737
G1 X108.277 Y92.896 E2.04277
;WIDTH:0.254381
G1 X108.753 Y92.858 E2.05357
;WIDTH:0.179027
G1 X109.01 Y92.839 E2.05714
;WIDTH:0.259184
G1 X109.517 Y92.879 E2.06893
;WIDTH:0.339341
G1 X110.024 Y92.919 E2.08546
;WIDTH:0.395668
G3 X110.919 Y93.042 I-0.312 J5.591 E2.12077
G1 E.72077 F4800
;WIPE_START
G1 F5760
G2 X110.170 Y92.930 I-1.108 J4.850 E0.12077
;WIPE_END
G92 E0
G1 X167.905 Y92.73 F7200
G1 E2 F4800
;TYPE:Solid infill
;WIDTH:0.561571
G1 F3000
G1 X168.694 Y93.519 E2.06514
G1 X168.694 Y94.228 E2.10653
G1 X167.421 Y92.955 E2.21163
G1 X166.712 Y92.955 E2.25302
G1 X168.694 Y94.937 E2.41665
G1 X168.694 Y95.646 E2.45804
G1 X166.003 Y92.955 E2.68021
G1 X165.293 Y92.955 E2.72166
G1 X168.694 Y96.356 E3.00244
G1 X168.694 Y97.065 E3.04383
G1 X164.584 Y92.955 E3.38315
G1 X163.875 Y92.955 E3.42454
G1 X168.694 Y97.774 E3.82239
G1 X168.694 Y98.483 E3.86378
G1 X163.166 Y92.955 E4.32016
G1 X162.457 Y92.955 E4.36155
G1 X168.694 Y99.192 E4.87647
G1 X168.694 Y99.902 E4.91792
G1 X161.747 Y92.955 E5.49145
G1 X161.038 Y92.955 E5.53284
G1 X168.694 Y100.611 E6.16491
G1 X168.694 Y101.32 E6.2063
G1 X160.329 Y92.955 E6.8969
G1 X159.62 Y92.955 E6.93829
G1 X168.694 Y102.029 E7.68743
G1 X168.694 Y102.738 E7.72882
G1 X158.911 Y92.955 E8.53649
G1 X158.201 Y92.955 E8.57794
G1 X168.694 Y103.448 E9.44423
G1 X168.694 Y104.157 E9.48562
G1 X157.492 Y92.955 E10.41044
G1 X156.783 Y92.955 E10.45183
G1 X168.694 Y104.866 E11.43519
G1 X168.694 Y105.575 E11.47658
G1 X156.074 Y92.955 E12.51847
G1 X155.365 Y92.955 E12.55986
G1 X168.694 Y106.284 E13.66028
G1 X168.694 Y106.994 E13.70173
G1 X164.606 Y102.905 E14.03927
G1 X164.606 Y103.614 E14.08066
G1 X168.694 Y107.703 E14.4182
G1 X168.694 Y108.412 E14.45959
G1 X164.606 Y104.323 E14.79713
G1 X164.606 Y105.033 E14.83858
G1 X168.694 Y109.121 E15.17608
G1 X168.694 Y109.83 E15.21747
G1 X164.606 Y105.742 E15.55497
G1 X164.606 Y106.451 E15.59636
G1 X168.694 Y110.54 E15.9339
G1 X168.694 Y111.249 E15.97529
G1 X164.606 Y107.16 E16.31283
G1 X164.606 Y107.869 E16.35422
G1 X168.694 Y111.958 E16.69176
G1 X168.694 Y112.667 E16.73315
G1 X164.606 Y108.579 E17.07065
G1 X164.606 Y109.288 E17.11204
G1 X168.694 Y113.376 E17.44954
G1 X168.694 Y114.086 E17.49099
G1 X164.606 Y109.997 E17.82853
G1 X164.606 Y110.706 E17.86992
G1 X168.694 Y114.795 E18.20746
G1 X168.694 Y115.504 E18.24885
G1 X164.606 Y111.415 E18.58639
G1 X164.606 Y112.125 E18.62784
G1 X168.694 Y116.213 E18.96534
G1 X168.694 Y116.922 E19.00673
G1 X164.606 Y112.834 E19.34423
G1 X164.606 Y113.543 E19.38562
G1 X168.694 Y117.632 E19.72316
G1 X168.694 Y118.341 E19.76455
G1 X164.606 Y114.252 E20.10209
G1 X164.606 Y114.961 E20.14348
G1 X168.694 Y119.05 E20.48102
G1 X168.694 Y119.759 E20.52241
G1 X164.606 Y115.671 E20.85991
G1 X164.606 Y116.38 E20.9013
G1 X168.694 Y120.468 E21.2388
G1 X168.694 Y121.178 E21.28025
G1 X164.606 Y117.089 E21.61779
G1 X164.606 Y117.798 E21.65918
G1 X168.694 Y121.887 E21.99672
G1 X168.694 Y122.596 E22.03811
G1 X164.606 Y118.508 E22.37561
G1 X164.606 Y119.217 E22.417
G1 X168.694 Y123.305 E22.7545
G1 X168.694 Y124.014 E22.79589
G1 X164.606 Y119.926 E23.13339
G1 X164.606 Y120.635 E23.17478
G1 X168.694 Y124.724 E23.51232
G1 X168.694 Y125.433 E23.55371
G1 X164.606 Y121.344 E23.89125
G1 X164.606 Y122.054 E23.9327
G1 X168.694 Y126.142 E24.2702
G1 X168.694 Y126.851 E24.31159
G1 X164.606 Y122.763 E24.64909
G1 X164.606 Y123.472 E24.69048
G1 X168.179 Y127.045 E24.98546
G1 X167.47 Y127.045 E25.02685
G1 X164.381 Y123.957 E25.28183
G1 X163.672 Y123.957 E25.32322
G1 X166.761 Y127.045 E25.5782
G1 X166.051 Y127.045 E25.61965
G1 X162.963 Y123.957 E25.87459
G1 X162.254 Y123.957 E25.91598
G1 X165.342 Y127.045 E26.17092
G1 X164.633 Y127.045 E26.21231
G1 X161.545 Y123.957 E26.46725
G1 X160.835 Y123.957 E26.5087
G1 X163.924 Y127.045 E26.76368
G1 X163.215 Y127.045 E26.80507
G1 X160.126 Y123.957 E27.06005
G1 X159.417 Y123.957 E27.10144
G1 X162.505 Y127.045 E27.35638
G1 X161.796 Y127.045 E27.39777
G1 X158.708 Y123.957 E27.65271
G1 X157.999 Y123.957 E27.6941
G1 X161.087 Y127.045 E27.94904
G1 X160.378 Y127.045 E27.99043
G1 X157.289 Y123.957 E28.24541
G1 X156.58 Y123.957 E28.2868
G1 X159.669 Y127.045 E28.54178
G1 X158.959 Y127.045 E28.58323
G1 X155.871 Y123.957 E28.83817
G1 X155.162 Y123.957 E28.87956
G1 X158.25 Y127.045 E29.1345
G1 X157.541 Y127.045 E29.17589
G1 X154.453 Y123.957 E29.43083
G1 X153.743 Y123.957 E29.47228
G1 X156.832 Y127.045 E29.72726
G1 X156.123 Y127.045 E29.76865
